Costumes/building-i.svg

<svg version="1.1" width="62" height="169" viewBox="-1 -1 62 169" xmlns="http://www.w3.org/2000/svg" xmlns:xlink="http://www.w3.org/1999/xlink">
  <!-- Exported by Scratch - http://scratch.mit.edu/ -->
  <g id="ID0.5135330413468182">
    <g id="ID0.8551308554597199">
      <path id="ID0.38391697173938155" fill="#E7F5F5" d="M 209.600 192.100 L 270.400 192.100 L 270.400 359.900 L 209.600 359.900 L 209.600 192.100 Z " transform="matrix(1, 0, 0, 1, -209, -192)"/>
    </g>
    <g id="ID0.737076009158045">
      <path id="ID0.17691713804379106" fill="#7ADED4" d="M 265.700 205.400 L 213.600 205.400 L 213.600 195.700 L 265.700 195.700 L 265.700 205.400 Z M 215.900 203.100 L 263.400 203.100 L 263.400 198 L 215.900 198 L 215.900 203.100 Z " transform="matrix(1, 0, 0, 1, -209, -192)"/>
    </g>
    <g id="ID0.7978483871556818">
      <path id="ID0.6775842714123428" fill="#7ADED4" d="M 210.700 207.900 L 269 207.900 L 269 210.200 L 210.700 210.200 L 210.700 207.900 Z " transform="matrix(1, 0, 0, 1, -209, -192)"/>
    </g>
    <g id="ID0.8271136535331607">
      <path id="ID0.7282397476956248" fill="#7ADED4" d="M 210.700 213.900 L 269 213.900 L 269 216.200 L 210.700 216.200 L 210.700 213.900 Z " transform="matrix(1, 0, 0, 1, -209, -192)"/>
    </g>
    <g id="ID0.9991005323827267">
      <path id="ID0.8710905886255205" fill="#7ADED4" d="M 214.200 215.300 L 216.500 215.300 L 216.500 360 L 214.200 360 L 214.200 215.300 Z " transform="matrix(1, 0, 0, 1, -209, -192)"/>
    </g>
    <g id="ID0.8640242065303028">
      <path id="ID0.9272404066286981" fill="#7ADED4" d="M 220 215.300 L 222.300 215.300 L 222.300 360 L 220 360 L 220 215.300 Z " transform="matrix(1, 0, 0, 1, -209, -192)"/>
    </g>
    <g id="ID0.3970852168276906">
      <path id="ID0.12093177950009704" fill="#7ADED4" d="M 225 215.300 L 227.300 215.300 L 227.300 360 L 225 360 L 225 215.300 Z " transform="matrix(1, 0, 0, 1, -209, -192)"/>
    </g>
    <g id="ID0.16714043449610472">
      <path id="ID0.2891352567821741" fill="#7ADED4" d="M 230.200 215.300 L 232.500 215.300 L 232.500 360 L 230.200 360 L 230.200 215.300 Z " transform="matrix(1, 0, 0, 1, -209, -192)"/>
    </g>
    <g id="ID0.03194293240085244">
      <path id="ID0.17899603676050901" fill="#7ADED4" d="M 235.900 215.300 L 238.200 215.300 L 238.200 360 L 235.900 360 L 235.900 215.300 Z " transform="matrix(1, 0, 0, 1, -209, -192)"/>
    </g>
    <g id="ID0.49646492721512914">
      <path id="ID0.4128387407399714" fill="#7ADED4" d="M 241.700 215.100 L 244 215.100 L 244 359.800 L 241.700 359.800 L 241.700 215.100 Z " transform="matrix(1, 0, 0, 1, -209, -192)"/>
    </g>
    <g id="ID0.6311991135589778">
      <path id="ID0.17681099008768797" fill="#7ADED4" d="M 249.400 215.100 L 251.700 215.100 L 251.700 359.800 L 249.400 359.800 L 249.400 215.100 Z " transform="matrix(1, 0, 0, 1, -209, -192)"/>
    </g>
    <g id="ID0.5716141378507018">
      <path id="ID0.957622985355556" fill="#7ADED4" d="M 257.100 215.100 L 259.400 215.100 L 259.400 359.800 L 257.100 359.800 L 257.100 215.100 Z " transform="matrix(1, 0, 0, 1, -209, -192)"/>
    </g>
    <g id="ID0.6182304918766022">
      <path id="ID0.06737786624580622" fill="#7ADED4" d="M 263.300 215.100 L 265.600 215.100 L 265.600 359.800 L 263.300 359.800 L 263.300 215.100 Z " transform="matrix(1, 0, 0, 1, -209, -192)"/>
    </g>
  </g>
</svg>

<?xml version="1.0" encoding="UTF-8" standalone="no"?>
<svg
   version="1.1"
   width="60.799999"
   height="167.89999"
   viewBox="-1 -1 60.799999 167.89999"
   id="svg29"
   sodipodi:docname="building-i.svg"
   xmlns:inkscape="http://www.inkscape.org/namespaces/inkscape"
   xmlns:sodipodi="http://sodipodi.sourceforge.net/DTD/sodipodi-0.dtd"
   xmlns="http://www.w3.org/2000/svg"
   xmlns:svg="http://www.w3.org/2000/svg">
  <defs
     id="defs33" />
  <sodipodi:namedview
     id="namedview31"
     pagecolor="#ffffff"
     bordercolor="#000000"
     borderopacity="0.25"
     inkscape:showpageshadow="2"
     inkscape:pageopacity="0.0"
     inkscape:pagecheckerboard="0"
     inkscape:deskcolor="#d1d1d1" />
  <!-- Exported by Scratch - http://scratch.mit.edu/ -->
  <g
     id="ID0.5135330413468182"
     transform="translate(-1.6,-1.1)">
    <g
       id="ID0.8551308554597199">
      <path
         id="ID0.38391697173938155"
         fill="#e7f5f5"
         d="m 209.6,192.1 h 60.8 v 167.8 h -60.8 z"
         transform="translate(-209,-192)" />
    </g>
    <g
       id="ID0.737076009158045">
      <path
         id="ID0.17691713804379106"
         fill="#7aded4"
         d="m 265.7,205.4 h -52.1 v -9.7 h 52.1 z m -49.8,-2.3 h 47.5 V 198 h -47.5 z"
         transform="translate(-209,-192)" />
    </g>
    <g
       id="ID0.7978483871556818">
      <path
         id="ID0.6775842714123428"
         fill="#7aded4"
         d="M 210.7,207.9 H 269 v 2.3 h -58.3 z"
         transform="translate(-209,-192)" />
    </g>
    <g
       id="ID0.8271136535331607">
      <path
         id="ID0.7282397476956248"
         fill="#7aded4"
         d="M 210.7,213.9 H 269 v 2.3 h -58.3 z"
         transform="translate(-209,-192)" />
    </g>
    <g
       id="ID0.9991005323827267">
      <path
         id="ID0.8710905886255205"
         fill="#7aded4"
         d="m 214.2,215.3 h 2.3 V 360 h -2.3 z"
         transform="translate(-209,-192)" />
    </g>
    <g
       id="ID0.8640242065303028">
      <path
         id="ID0.9272404066286981"
         fill="#7aded4"
         d="m 220,215.3 h 2.3 V 360 H 220 Z"
         transform="translate(-209,-192)" />
    </g>
    <g
       id="ID0.3970852168276906">
      <path
         id="ID0.12093177950009704"
         fill="#7aded4"
         d="m 225,215.3 h 2.3 V 360 H 225 Z"
         transform="translate(-209,-192)" />
    </g>
    <g
       id="ID0.16714043449610472">
      <path
         id="ID0.2891352567821741"
         fill="#7aded4"
         d="m 230.2,215.3 h 2.3 V 360 h -2.3 z"
         transform="translate(-209,-192)" />
    </g>
    <g
       id="ID0.03194293240085244">
      <path
         id="ID0.17899603676050901"
         fill="#7aded4"
         d="m 235.9,215.3 h 2.3 V 360 h -2.3 z"
         transform="translate(-209,-192)" />
    </g>
    <g
       id="ID0.49646492721512914">
      <path
         id="ID0.4128387407399714"
         fill="#7aded4"
         d="m 241.7,215.1 h 2.3 v 144.7 h -2.3 z"
         transform="translate(-209,-192)" />
    </g>
    <g
       id="ID0.6311991135589778">
      <path
         id="ID0.17681099008768797"
         fill="#7aded4"
         d="m 249.4,215.1 h 2.3 v 144.7 h -2.3 z"
         transform="translate(-209,-192)" />
    </g>
    <g
       id="ID0.5716141378507018">
      <path
         id="ID0.957622985355556"
         fill="#7aded4"
         d="m 257.1,215.1 h 2.3 v 144.7 h -2.3 z"
         transform="translate(-209,-192)" />
    </g>
    <g
       id="ID0.6182304918766022">
      <path
         id="ID0.06737786624580622"
         fill="#7aded4"
         d="m 263.3,215.1 h 2.3 v 144.7 h -2.3 z"
         transform="translate(-209,-192)" />
    </g>
  </g>
</svg>
